src/icons/0080_padlock_open_a.svg

<svg data-name="Layer 1" xmlns="http://www.w3.org/2000/svg" viewBox="0 0 48 48"><path d="M37 0a11 11 0 00-11 11v9H3.2A2.22 2.22 0 001 22.2v23.7A2.2 2.2 0 003.2 48h29.7a2.22 2.22 0 002.2-2.2V22.2a2.22 2.22 0 00-2.2-2.2H29v-9a8 8 0 0116 0v12h3V11A11 11 0 0037 0zM20 33.5V40h-4v-6.5a3.26 3.26 0 01-1-2.3 3 3 0 013-3 3.08 3.08 0 013 3 3.26 3.26 0 01-1 2.3z"/></svg>

<svg id="Layer_1" data-name="Layer 1" xmlns="http://www.w3.org/2000/svg" viewBox="0 0 48 48"><title>0080_padlock_open_a</title><path d="M37,0A11,11,0,0,0,26,11v9H3.2A2.22,2.22,0,0,0,1,22.2V45.9A2.2,2.2,0,0,0,3.2,48H32.9a2.22,2.22,0,0,0,2.2-2.2V22.2A2.22,2.22,0,0,0,32.9,20H29V11a8,8,0,0,1,16,0V23h3V11A11,11,0,0,0,37,0ZM20,33.5V40H16V33.5a3.26,3.26,0,0,1-1-2.3,3,3,0,0,1,3-3,3.08,3.08,0,0,1,3,3A3.26,3.26,0,0,1,20,33.5Z"/></svg>
